images/fixme.svg

<?xml version="1.0" encoding="UTF-8" standalone="no"?>
<svg xmlns:dc="http://purl.org/dc/elements/1.1/" xmlns:cc="http://creativecommons.org/ns#" xmlns:rdf="http://www.w3.org/1999/02/22-rdf-syntax-ns#" xmlns:svg="http://www.w3.org/2000/svg" xmlns="http://www.w3.org/2000/svg" xmlns:sodipodi="http://sodipodi.sourceforge.net/DTD/sodipodi-0.dtd" xmlns:inkscape="http://www.inkscape.org/namespaces/inkscape" version="1.1" id="svg109" width="14" height="14" viewBox="0 0 14 14" sodipodi:docname="fixme.svg" inkscape:version="0.92.4 (5da689c313, 2019-01-14)">
  <sodipodi:namedview pagecolor="#ffffff" bordercolor="#666666" borderopacity="1" objecttolerance="10" gridtolerance="10" guidetolerance="10" inkscape:pageopacity="0" inkscape:pageshadow="2" inkscape:window-width="1881" inkscape:window-height="1056" id="namedview844" showgrid="false" inkscape:pagecheckerboard="true" inkscape:zoom="61.285714" inkscape:cx="3.6351496" inkscape:cy="8.271508" inkscape:window-x="0" inkscape:window-y="0" inkscape:window-maximized="1" inkscape:current-layer="svg109">
    <inkscape:grid type="xygrid" id="grid846" units="px" spacingx="1" spacingy="1" />
  </sodipodi:namedview>
  <metadata id="metadata115">
    <rdf:RDF>
      <cc:Work rdf:about="">
        <dc:format>image/svg+xml</dc:format>
        <dc:type rdf:resource="http://purl.org/dc/dcmitype/StillImage" />
        <dc:title />
      </cc:Work>
    </rdf:RDF>
  </metadata>
  <defs id="defs113" />
  <path style="opacity:0.33;fill:#fff2f2;fill-opacity:1;fill-rule:nonzero;stroke:none;stroke-width:0.99999988;stroke-linecap:round;stroke-linejoin:round;stroke-miterlimit:4;stroke-dasharray:none;stroke-dashoffset:0;stroke-opacity:0.50196078;paint-order:normal" d="M 9.8521403,7.3301434 C 9.2826713,9.3563627 8.5242616,11.212966 7.3030885,11.260959 C 5.792704,11.320317 5.1527007,10.115614 4.8230643,7.0712939 C 4.4934279,4.0269741 4.2706151,1.6909219 7.3030885,1.6736653 C 9.8178221,1.6593549 11.032721,3.1295359 9.8521403,7.3301434 Z" id="path3863" inkscape:connector-curvature="0" sodipodi:nodetypes="sszss" />
  <path inkscape:connector-curvature="0" id="path3278" style="color:#000000;font-style:normal;font-variant:normal;font-weight:normal;font-stretch:normal;font-size:medium;line-height:normal;font-family:sans-serif;font-variant-ligatures:normal;font-variant-position:normal;font-variant-caps:normal;font-variant-numeric:normal;font-variant-alternates:normal;font-feature-settings:normal;text-indent:0;text-align:start;text-decoration:none;text-decoration-line:none;text-decoration-style:solid;text-decoration-color:#000000;letter-spacing:normal;word-spacing:normal;text-transform:none;writing-mode:lr-tb;direction:ltr;text-orientation:mixed;dominant-baseline:auto;baseline-shift:baseline;text-anchor:start;white-space:normal;shape-padding:0;clip-rule:nonzero;display:inline;overflow:visible;visibility:visible;opacity:1;isolation:auto;mix-blend-mode:normal;color-interpolation:sRGB;color-interpolation-filters:linearRGB;solid-color:#000000;solid-opacity:1;vector-effect:none;fill:#ff0000;fill-opacity:1;fill-rule:nonzero;stroke:none;stroke-width:1;stroke-linecap:round;stroke-linejoin:round;stroke-miterlimit:4;stroke-dasharray:none;stroke-dashoffset:0;stroke-opacity:1;paint-order:normal;color-rendering:auto;image-rendering:auto;shape-rendering:auto;text-rendering:auto;enable-background:accumulate" d="M 5.6747519,3.0749311 Q 6.6080894,2.6530837 7.3463224,2.6530837 Q 8.3429372,2.6530837 8.8860657,3.1012966 Q 9.4291943,3.5495095 9.4291943,4.4248431 Q 9.4291943,5.3318151 8.2532945,6.3073374 Q 7.7418044,6.7291849 7.6257964,6.8715583 Q 7.5150614,7.0086588 7.4465111,7.2090364 Q 7.3779611,7.409414 7.3779611,7.7099803 V 8.0000004 H 6.6555471 V 7.6994341 Q 6.6555471,6.7819158 7.2408606,6.2704258 L 7.9369089,5.6587469 Q 8.2743869,5.3739999 8.4325797,5.0839798 Q 8.5907725,4.7886865 8.5907725,4.4564816 Q 8.5907725,3.9080799 8.2427483,3.6180598 Q 7.8947242,3.3227665 7.2935915,3.3227665 Q 6.7504629,3.3227665 5.9225872,3.7129755 Z M 7.1090332,9.0282536 Q 7.3885072,9.0282536 7.5783385,9.218085 Q 7.7681699,9.4079163 7.7681699,9.6873903 Q 7.7681699,9.9721374 7.5730655,10.177788 Q 7.3832341,10.378166 7.1090332,10.378166 Q 6.8401054,10.378166 6.6502742,10.177788 Q 6.4604427,9.9721374 6.4604427,9.6873903 Q 6.4604427,9.4026433 6.645001,9.218085 Q 6.8348324,9.0282536 7.1090332,9.0282536 Z" />
</svg>

<svg xmlns="http://www.w3.org/2000/svg" width="14" height="14">
    <path d="M9.852 7.33c-.57 2.026-1.328 3.883-2.549 3.931-1.51.06-2.15-1.145-2.48-4.19-.33-3.044-.552-5.38 2.48-5.397 2.515-.015 3.73 1.456 2.55 5.656z" opacity=".33" fill="#fff2f2"/>
    <path d="M5.675 3.075q.933-.422 1.671-.422.997 0 1.54.448.543.449.543 1.324 0 .907-1.176 1.882-.511.422-.627.565-.11.137-.18.337-.068.2-.068.501V8h-.722v-.3q0-.918.585-1.43l.696-.611q.337-.285.496-.575.158-.295.158-.628 0-.548-.348-.838-.348-.295-.95-.295-.543 0-1.37.39zm1.434 5.953q.28 0 .47.19.19.19.19.47 0 .284-.196.49-.19.2-.464.2-.269 0-.459-.2-.19-.206-.19-.49 0-.285.185-.47.19-.19.464-.19z" color="#000" fill="red"/>
</svg>
